src/static/images/underbrush.svg

<svg xmlns="http://www.w3.org/2000/svg" width="447.898" height="43.004" viewBox="0 0 447.898 43.004"><defs><style>.a{fill:#4b552a;}</style></defs><path class="a" d="M-144.348,25.175s-.078,5.449,0,5.742A35.161,35.161,0,0,0-133.935,28.4c1.939,4.044,2.714,8.17,1.661,12.214a23.494,23.494,0,0,0,8.641-3.672c1.274,2.971,2.659,5.942,4.1,8.913a31.77,31.77,0,0,0,7.367-4.621,12.33,12.33,0,0,0,2.769,6.808c2.825-1.816,5.65-3.631,8.419-5.447a10.868,10.868,0,0,0,4.044,4.828c1.717-3.219,4.819-5.983,8.752-8.459A17.005,17.005,0,0,0-82.2,43.42c.111-3.425,4.154-6.107,9.749-7.716a45.231,45.231,0,0,0,1,5.24c5.041-.578,10.247-1.032,15.343-1.485-2.936,3.219-8.143,6.024-15.62,7.469a83.944,83.944,0,0,0,18.279-2.765A9.145,9.145,0,0,0-52.4,47.5c-1.717,2.393-4.874,4.58-9.749,6.107,8.863-1.527,15.288-4.5,19.054-7.964.222.206.5.413.72.66a9.285,9.285,0,0,0,3.157,2.435c1.108.784,2.327,1.568,3.545,2.352-.055-.33-.055-.66-.111-.99.166.041.332.124.554.165a12.329,12.329,0,0,1,1.44-7.427c4.154,2.6,10.857,4.415,18.5,4.7a17.06,17.06,0,0,1-5.318-2.682,17.255,17.255,0,0,0,6.924-3.342c.5,1.4,1.108,2.847,1.772,4.291A13.44,13.44,0,0,0-5.76,44.286c-.055.165-.111.289-.166.454-1.219,3.507-5.705,6.437-12.74,7.51,9.25.99,18.057-.041,24.1-2.393a14.528,14.528,0,0,1-1.44,9c5.262-.66,9.25-2.311,11.134-4.374,2.991,4.787,9.472,9.491,19.664,12.792-8.032-4-10.58-9.2-9.25-13.864a86.68,86.68,0,0,0,23.43,7.51c-8.309-2.93-13.4-7.1-15.565-11.389,5.872,1.362,11.854,2.765,17.67,4.25,1.219-2.022,2.326-4.044,3.268-6.024,6.038,2.806,9.749,6.6,8.53,10.687a27.355,27.355,0,0,0,8.918-4.333c3.711,3.507,6.315,7.3,7.09,11.389a17.591,17.591,0,0,0,6.7-5.075c2.6,2.6,5.262,5.2,7.976,7.757,8.53-7.1,8.2-14.277,2.493-19.229,3.213.165,6.536.248,9.86.248a14.921,14.921,0,0,1,.111,1.568c1.108-.536,2.16-1.032,3.268-1.568h.388V48.99c1-.5,2.05-.99,3.047-1.485a11.678,11.678,0,0,1,.665,5.488,28.086,28.086,0,0,0,8.53-7.716,30.26,30.26,0,0,1,5.65,14.607c3.656-2.228,6.148-5.282,7.035-8.541,1.606,3.095,4.764,5.777,8.752,7.592A22.671,22.671,0,0,1,147.23,46.06a15.654,15.654,0,0,0,3.545,2.393c2.437-3.507,5.594-6.767,6.7-10.6,3.822,2.558,5.982,6.313,5.594,9.986s-3.379,7.139-7.921,9.119a25.2,25.2,0,0,0,14.125-3.837c1,2.971,1.994,5.9,2.991,8.872q2.825-6.189,5.484-12.379a18.939,18.939,0,0,1,1.163,13.122,66.985,66.985,0,0,0,7.7-12.668c1.44-3.012,2.548-6.231,1.883-9.408,1.052,1.857,2.16,3.714,3.268,5.571a44.458,44.458,0,0,0,2.548-3.879c3.6-.536,7.145-1.2,10.524-1.9-3.767,5.694-1.5,12.709,9.361,18.321,1.717-2.93,3.379-5.818,4.985-8.748a23.019,23.019,0,0,0,8.419,3.92c-.72-4.085.5-8.17,2.825-12.173a32.6,32.6,0,0,0,10.247,2.847c-2.714-3.755-.388-8.046,4.487-11.719a75.642,75.642,0,0,0,5.373,5.364c5.151-2.311,10.524-4.58,15.786-6.808-.554,4.5-4.044,9.326-11.134,13.452A69.924,69.924,0,0,0,275.46,34.011c2.991,4.333,2.326,9.779-4.044,14.9,8.752-4.787,13.46-10.357,14.679-15.474,2.6,1.733,7.145,2.723,12.518,2.517a17.9,17.9,0,0,1-4.653-8.541c6.758,1.362,6.988,3.793,9.481,3.5.166-1.485,0-5.74,0-5.74Z" transform="translate(144.383 -25.173)"/></svg>

<?xml version="1.0" encoding="UTF-8" standalone="no"?>
<!DOCTYPE svg PUBLIC "-//W3C//DTD SVG 1.1//EN" "http://www.w3.org/Graphics/SVG/1.1/DTD/svg11.dtd">
<svg width="100%" height="100%" viewBox="0 0 448 44" version="1.1" xmlns="http://www.w3.org/2000/svg" xmlns:xlink="http://www.w3.org/1999/xlink" xml:space="preserve" xmlns:serif="http://www.serif.com/" style="fill-rule:evenodd;clip-rule:evenodd;stroke-linejoin:round;stroke-miterlimit:2;">
    <g transform="matrix(-1,1.22465e-16,-1.25284e-16,-1.02302,303.515,69.7524)">
        <path d="M-144.348,25.175C-144.348,25.175 -144.426,30.624 -144.348,30.917C-140.769,30.615 -137.257,29.766 -133.935,28.4C-131.996,32.444 -131.221,36.57 -132.274,40.614C-129.176,39.984 -126.237,38.735 -123.633,36.942C-122.359,39.913 -120.974,42.884 -119.533,45.855C-116.877,44.66 -114.398,43.105 -112.166,41.234C-111.957,43.732 -110.99,46.107 -109.397,48.042C-106.572,46.226 -103.747,44.411 -100.978,42.595C-100.136,44.568 -98.729,46.248 -96.934,47.423C-95.217,44.204 -92.115,41.44 -88.182,38.964C-86.542,40.874 -84.499,42.396 -82.2,43.42C-82.089,39.995 -78.046,37.313 -72.451,35.704C-72.221,37.469 -71.887,39.219 -71.451,40.944C-66.41,40.366 -61.204,39.912 -56.108,39.459C-59.044,42.678 -64.251,45.483 -71.728,46.928C-65.552,46.682 -59.422,45.755 -53.449,44.163C-53.317,45.332 -52.961,46.466 -52.4,47.5C-54.117,49.893 -57.274,52.08 -62.149,53.607C-53.286,52.08 -46.861,49.107 -43.095,45.643C-42.873,45.849 -42.595,46.056 -42.375,46.303C-41.511,47.334 -40.434,48.165 -39.218,48.738C-38.11,49.522 -36.891,50.306 -35.673,51.09C-35.728,50.76 -35.728,50.43 -35.784,50.1C-35.618,50.141 -35.452,50.224 -35.23,50.265C-35.54,47.7 -35.036,45.101 -33.79,42.838C-29.636,45.438 -22.933,47.253 -15.29,47.538C-17.206,46.963 -19.006,46.055 -20.608,44.856C-18.078,44.277 -15.711,43.134 -13.684,41.514C-13.184,42.914 -12.576,44.361 -11.912,45.805C-9.77,45.796 -7.66,45.275 -5.76,44.286C-5.815,44.451 -5.871,44.575 -5.926,44.74C-7.145,48.247 -11.631,51.177 -18.666,52.25C-9.416,53.24 -0.609,52.209 5.434,49.857C5.932,52.933 5.427,56.09 3.994,58.857C9.256,58.197 13.244,56.546 15.128,54.483C18.119,59.27 24.6,63.974 34.792,67.275C26.76,63.275 24.212,58.075 25.542,53.411C32.955,57.016 40.845,59.544 48.972,60.921C40.663,57.991 35.572,53.821 33.407,49.532C39.279,50.894 45.261,52.297 51.077,53.782C52.296,51.76 53.403,49.738 54.345,47.758C60.383,50.564 64.094,54.358 62.875,58.445C66.087,57.556 69.109,56.087 71.793,54.112C75.504,57.619 78.108,61.412 78.883,65.501C81.493,64.376 83.793,62.634 85.583,60.426C88.183,63.026 90.845,65.626 93.559,68.183C102.089,61.083 101.759,53.906 96.052,48.954C99.265,49.119 102.588,49.202 105.912,49.202C105.977,49.722 106.014,50.246 106.023,50.77C107.131,50.234 108.183,49.738 109.291,49.202L109.679,49.202L109.679,48.99C110.679,48.49 111.729,48 112.726,47.505C113.384,49.255 113.612,51.137 113.391,52.993C116.736,51.037 119.64,48.41 121.921,45.277C125.053,49.565 127.002,54.604 127.571,59.884C131.227,57.656 133.719,54.602 134.606,51.343C136.212,54.438 139.37,57.12 143.358,58.935C143.317,54.351 144.668,49.861 147.23,46.06C148.297,47.016 149.489,47.821 150.775,48.453C153.212,44.946 156.369,41.686 157.475,37.853C161.297,40.411 163.457,44.166 163.069,47.839C162.681,51.512 159.69,54.978 155.148,56.958C160.132,57.105 165.048,55.769 169.273,53.121C170.273,56.092 171.267,59.021 172.264,61.993C174.147,57.867 175.975,53.741 177.748,49.614C179.693,53.707 180.106,58.365 178.911,62.736C181.938,58.811 184.521,54.563 186.611,50.068C188.051,47.056 189.159,43.837 188.494,40.66C189.546,42.517 190.654,44.374 191.762,46.231C192.678,44.983 193.529,43.688 194.31,42.352C197.91,41.816 201.455,41.152 204.834,40.452C201.067,46.146 203.334,53.161 214.195,58.773C215.912,55.843 217.574,52.955 219.18,50.025C221.691,51.89 224.556,53.224 227.599,53.945C226.879,49.86 228.099,45.775 230.424,41.772C233.661,43.275 237.123,44.237 240.671,44.619C237.957,40.864 240.283,36.573 245.158,32.9C246.858,34.777 248.651,36.567 250.531,38.264C255.682,35.953 261.055,33.684 266.317,31.456C265.763,35.956 262.273,40.782 255.183,44.908C262.498,42.421 269.349,38.739 275.46,34.011C278.451,38.344 277.786,43.79 271.416,48.911C280.168,44.124 284.876,38.554 286.095,33.437C288.695,35.17 293.24,36.16 298.613,35.954C296.304,33.591 294.693,30.635 293.96,27.413C300.718,28.775 300.948,31.206 303.441,30.913C303.607,29.428 303.441,25.173 303.441,25.173L-144.348,25.175Z" style="fill:rgb(75,85,42);fill-rule:nonzero;"/>
    </g>
</svg>
